archdroid-icon-theme/Archdroid-Green/places/scalable/folder-collection-opensuse.svg

<svg fill="#4caf50" height="48" viewBox="0 0 48 48" width="48" xmlns="http://www.w3.org/2000/svg"><g fill="#4caf50"><path d="m8 12h-4v28c0 2.21 1.79 4 4 4h28v-4h-28z"/><path d="m16 4c-2.21 0-4 1.79-4 4v24c0 2.21 1.79 4 4 4h24c2.21 0 4-1.79 4-4v-24c0-2.21-1.79-4-4-4zm12 6c5.522275 0 10 4.477161 10 10 0 5.522959-4.477725 10-10 10-5.522394 0-10-4.477041-10-10 0-5.522839 4.477486-10 10-10zm.048828 1.384766c-3.303825 0-5.191768 1.352607-6.423828 2.876953.94407.258939 1.601897.474628 1.814453.544922.00263-.14274.025391-1.429688.025391-1.429688l.019531-.039062.046875-.015625c.290023.042319 6.48669.957875 9.095703 2.478515.32266.189482.479804.389325.679688.59375.720754.745377 1.678398 3.849103 1.779297 4.490235l-.039063.066406c-.037299.013748-.129216.07715-.248047.158203-.608738.425588-2.030929 1.421872-3.855469 1.259766-1.641033-.146207-3.782641-1.088385-6.365234-2.789063.11369.268144.650573 1.543704.740234 1.757813l.03711.042968c.374185.193069 3.962 2.023627 5.742187 1.986329 1.436727-.028692 2.970106-.729571 3.583985-1.097657l.195312-.037109c.054634.042678.046153.124183.029297.201172-.037658.175973-.123062.498525-.181641.648437l-.046875.125c-.069816.185537-.138985.365662-.269531.472657-.361991.329471-.93949.58967-1.84375.986328-1.39883.611364-3.667004.996568-5.773437.984375-.753869-.016737-1.484224-.100905-2.125-.173828-1.337143-.152423-2.421407-.275257-3.070313.228515 1.578271 1.783763 3.883802 2.910156 6.453125 2.910156 4.757886 0 8.617188-3.856899 8.617188-8.615234 0-4.757618-3.858824-8.615234-8.617188-8.615234zm2.275391 4.560547c-.659546.009922-1.279145.256538-1.763672.710937-.519077.480699-.818765 1.13615-.84375 1.84375-.047341 1.458475 1.101465 2.689627 2.560547 2.744141.710473.022953 1.381034-.228127 1.898437-.712891.515969-.482253.813902-1.135273.839844-1.841797.049971-1.460507-1.097121-2.691659-2.558594-2.74414-.044352-.001555-.088938-.000718-.132812 0zm-.070313.78125c.060731-.003706.120074-.002272.181641 0 1.018906.035744 1.819227.888984 1.785156 1.910156-.015422.491339-.225381.950983-.585937 1.289062-.361513.33545-.831125.509323-1.326172.494141-1.018668-.037777-1.815082-.896518-1.78125-1.916016.015541-.49349.227533-.94875.585937-1.285156.314531-.294803.714915-.466246 1.140625-.492187zm.486328.923828c-.454162 0-.822265.246015-.822265.548828 0 .3009.368103.548828.822265.548828.452728 0 .81836-.24745.81836-.548828 0-.302813-.365632-.548828-.81836-.548828z"/></g></svg>

<svg fill="#4caf50" height="48" version="1.1" viewBox="0 0 48 48" width="48" xmlns="http://www.w3.org/2000/svg"><path d="m8 12l-4 0 0 28c0 2.21 1.79 4 4 4l28 0 0-4-28 0 0-28z"/><path d="M16 4C13.79 4 12 5.79 12 8L12 32C12 34.21 13.79 36 16 36L40 36C42.21 36 44 34.21 44 32L44 8C44 5.79 42.21 4 40 4L16 4zM28 10C33.522275 10 38 14.477161 38 20 38 25.522959 33.522275 30 28 30 22.477606 30 18 25.522959 18 20 18 14.477161 22.477486 10 28 10zM28.048828 11.384766C24.745003 11.384766 22.85706 12.737373 21.625 14.261719 22.56907 14.520658 23.226897 14.736347 23.439453 14.806641 23.442083 14.663901 23.464844 13.376953 23.464844 13.376953L23.484375 13.337891 23.53125 13.322266C23.821273 13.364585 30.01794 14.280141 32.626953 15.800781 32.949613 15.990263 33.106757 16.190106 33.306641 16.394531 34.027395 17.139908 34.985039 20.243634 35.085938 20.884766L35.046875 20.951172C35.009576 20.96492 34.917659 21.028322 34.798828 21.109375 34.19009 21.534963 32.767899 22.531247 30.943359 22.369141 29.302326 22.222934 27.160718 21.280756 24.578125 19.580078 24.691815 19.848222 25.228698 21.123782 25.318359 21.337891L25.355469 21.380859C25.729654 21.573928 29.317469 23.404486 31.097656 23.367188 32.534383 23.338496 34.067762 22.637617 34.681641 22.269531L34.876953 22.232422C34.931587 22.2751 34.923106 22.356605 34.90625 22.433594 34.868592 22.609567 34.783188 22.932119 34.724609 23.082031L34.677734 23.207031C34.607918 23.392568 34.538749 23.572693 34.408203 23.679688 34.046212 24.009159 33.468713 24.269358 32.564453 24.666016 31.165623 25.27738 28.897449 25.662584 26.791016 25.650391 26.037147 25.633654 25.306792 25.549486 24.666016 25.476563 23.328873 25.32414 22.244609 25.201306 21.595703 25.705078 23.173974 27.488841 25.479505 28.615234 28.048828 28.615234 32.806714 28.615234 36.666016 24.758335 36.666016 20 36.666016 15.242382 32.807192 11.384766 28.048828 11.384766zM30.324219 15.945313C29.664673 15.955235 29.045074 16.201851 28.560547 16.65625 28.04147 17.136949 27.741782 17.7924 27.716797 18.5 27.669456 19.958475 28.818262 21.189627 30.277344 21.244141 30.987817 21.267094 31.658378 21.016014 32.175781 20.53125 32.69175 20.048997 32.989683 19.395977 33.015625 18.689453 33.065596 17.228946 31.918504 15.997794 30.457031 15.945313 30.412679 15.943758 30.368093 15.944595 30.324219 15.945313zM30.253906 16.726563C30.314637 16.722857 30.37398 16.724291 30.435547 16.726563 31.454453 16.762307 32.254774 17.615547 32.220703 18.636719 32.205281 19.128058 31.995322 19.587702 31.634766 19.925781 31.273253 20.261231 30.803641 20.435104 30.308594 20.419922 29.289926 20.382145 28.493512 19.523404 28.527344 18.503906 28.542885 18.010416 28.754877 17.555156 29.113281 17.21875 29.427812 16.923947 29.828196 16.752504 30.253906 16.726563zM30.740234 17.650391C30.286072 17.650391 29.917969 17.896406 29.917969 18.199219 29.917969 18.500119 30.286072 18.748047 30.740234 18.748047 31.192962 18.748047 31.558594 18.500597 31.558594 18.199219 31.558594 17.896406 31.192962 17.650391 30.740234 17.650391z"/></svg>
